X:1
T:Title
%%score { ( 1 4 5 ) | ( 2 3 ) }
L:1/8
Q:1/4=108
M:12/8
K:A
V:1 treble nm="Grand Piano"
V:4 treble 
V:5 treble 
V:2 bass 
V:3 bass 
V:1
 [DB]2 ^A B2 A B2 d =c2 B | [CA-]3 A3[K:bass] [CE]6 | A2 G A2 G A2 =c B2 A | %3
w: Haldor~Lillenas * * * * * * *|||
 B,3 B,3[K:bass] [B,D]6 | [DB]2 ^A B2 A B2 d =c2 B | [CA-]3 A3[K:bass] [CE]6 | %6
w: |||
 F2 ^E F2 =c [D=GB]3 [DA]3 | =G2- [B,DG-] [=CEG-]2 [CEG-] [B,DG]3 z3 | %8
w: ||
 B2- [=GB-] [FB-]2 [EB-] [DB-]2 [EB-] [GB]2 B | =c2- [Ac-] [Gc-]3 [E,c-]3 [B,c]2 c | %10
w: ||
 =c2- [Ac-] [Gc-]2 [Ac-] [Bc-]2 [Ac-] [=Gc]2 c | %11
w: |
[M:27/16] d/-d/-d/-d/-d/-d/-d/-d/-d-<d=c/-c/-c/-c/-c/-c/-c/-c/-c/-c/-c-<c z/ |[M:6/4] B12 | %13
w: ||
 =c12[K:bass][K:treble] | =c12 | [Bd]6 z6 | e12 | e12 | B2 D C2 D A2 D C2 D | %19
w: ||||||
[M:33/16] [B,=G]/-[B,G]/-[B,G]/-[B,G]/-[B,G]/-[B,G]-<[B,G][=CG]/-[CG]/-[CG]/-[CG]/-[CG]/-[CG]-<[CG] z/ z/ z/ z/ z/ z/ z/ z/ z/ z/ z/ z/ z/ z |] %20
w: |
V:2
 z2 C D2 C D2 ^E =E2 D | A,,2 A,, A,,2 A,, A,,2 A,, A,,2 A,, | =C2 B, C2 B, C2 E D2 C | %3
 =G,2 =G,, G,,2 G,, G,,2 G,, G,,2 G,, | z2 C D2 C D2 ^E =E2 D | %5
 A,,2 A,, A,,2 A,, A,,2 A,, A,,2 A,, | D2[K:treble] D D2 F[K:bass] z3 =C3 | %7
 =G,,2 G,, G,,2 G,, G,,3 z3 | z6 z3 [B,,=G,]3 | [A,,F,]3 z2 A z2 =C z2 A, | z6 z3 [E,A,]3 | %11
[M:27/16] D-<D-[E,D-][F,D]-<[F,D-][=G,D-][A,D]/-[A,D]/-[A,D]-<[A,D-][F,D]/-[F,D]/-[F,D]/-[F,D]/-[F,D]-<[F,-D]F,/ | %12
[M:6/4] .[=G,D]3 [=G,,D,]3 [G,,G,]4 z E | [A,,F,]4 z A z2 .=C3 A, | z6 z2 z A,3[K:treble] | %15
 z2 .E3[K:bass] C =G,2 G, F,2 ^E, | [E,B,]3 [G,E]3 [E,E]4 z E | [E,G,]3 [G,B,]3 [A,=C]3 ^D3 | %18
 [=G,B,D]2 D, C,2 D, [F,A,=C]2 D, C,2 D, | %19
[M:33/16] D,-<D, z/ z/ z/ z E,-<E, z/ z/ z/ z/ z/ z/ z/ z/ z/ z/ z/ z/ z/ z/ z/ z/ z/ z/ z |] %20
V:3
 [=G,,=G,]6 [D,G,]3 [E,^G,]3 | x12 | [D,F,]6 [F,A,]6 | x12 | [=G,,=G,]6 [D,G,]3 [E,^G,]3 | x12 | %6
 [D,=C]6[K:treble][K:bass] D,6 | x12 | [=G,,=G,]3 [G,,D,]3 [G,,G,]3 z2 E | z3 D,3 A,,3 E,3 | %10
 [A,,A,]3 [E,A,]3 [A,,A,]3 z2 E | %11
[M:27/16] [D,F,]-<[D,F,] z/ z/ z/ z/ z/ z/ z/ z/ z/ z/ z/ z/ z/ z/ z/ z/ z/ z/ z/ z/ z/ z | %12
[M:6/4] z6 z2 z [B,,=G,]3 | z2 z D,3 A,,3 E,3 | [D,A,]3 [A,,A,]3 [D,A,]4 z[K:treble] ^A | %15
 =G,3[K:bass] D,3 z6 | z6 z2 z [G,B,]3 | x12 | x12 | %19
[M:33/16] =G,,/-G,,/-G,,/-G,,/-G,,/-G,,-<G,,G,,/-G,,/-G,,/-G,,/-G,,/-G,,-<G,,[G,,D,]/-[G,,D,]/-[G,,D,]/-[G,,D,]/-[G,,D,]/-[G,,D,]-<[G,,D,] z/ z/ z/ z/ z |] %20
V:4
 x12 | z3 C3[K:bass] z6 | x12 | =G2- [D,G-] G2- [A,G][K:bass] =G,2 D, G,2 B, | x12 | %5
 z3 C3[K:bass] z6 | x12 | .[B,D]3 z3 z6 | .D3 z3 z6 | .D3 z3 E6 | .E3 z3 z6 | %11
[M:27/16] z/ z/ z =G,A,-<A,B,=C/-C/-C-<CA,/-A,/-A,/-A,/-A,/-A,-<A, |[M:6/4] z2 =G F2 E D2 E G2 B | %13
 D2 A .G3[K:bass] .E,3 B,2[K:treble] =c | F2 E F2 =G A2 ^G A2 ^c | .D3 .D3 [D=GB]6 | %16
 G2 B ^A2 B =c2 B G2 e | B2 A G2 A E3 =c3 | x12 | %19
[M:33/16] z/ z/ z ^E,/-E,-<E, z/ z/ z ^D,/-D,-<D,[B,=G]/-[B,G]/-[B,G]/-[B,G]/-[B,G]/-[B,G]-<[B,G] z/ z/ z/ z/ z |] %20
V:5
 x12 | A,2 E, z2[K:bass] B, A,2 =G, E,2 A, | x12 | x6[K:bass] x6 | x12 | %5
 A,2 E, z2[K:bass] B, A,2 =G, E,2 A, | x12 | x12 | x12 | x12 | x12 |[M:27/16] x27/2 |[M:6/4] x12 | %13
 z6[K:bass] E6[K:treble] | x12 | x12 | x12 | x12 | x12 |[M:33/16] x33/2 |] %20

